apps/ledger-live-desktop/src/renderer/images/lending-illu-1.svg

<svg width="72" height="86" viewBox="0 0 72 86" fill="none" xmlns="http://www.w3.org/2000/svg">
<rect x="14" y="32" width="44" height="54" fill="url(#paint0_linear)" fill-opacity="0.3"/>
<g filter="url(#filter0_d)">
<path d="M14 34C14 21.8497 23.8497 12 36 12C48.1503 12 58 21.8497 58 34C58 46.1503 48.1503 56 36 56C23.8497 56 14 46.1503 14 34Z" fill="#F5AC37"/>
<g clip-path="url(#clip0)">
<path d="M36.2212 34.7759H41.6055C41.7203 34.7759 41.7745 34.7759 41.7828 34.6254C41.8268 34.0777 41.8268 33.5267 41.7828 32.9784C41.7828 32.8719 41.7299 32.8279 41.6144 32.8279H30.8987C30.7661 32.8279 30.7304 32.8719 30.7304 32.9962V34.5725C30.7304 34.7759 30.7304 34.7759 30.9427 34.7759H36.2212ZM41.1815 30.9857C41.1968 30.9455 41.1968 30.9015 41.1815 30.862C41.0916 30.6662 40.9851 30.4794 40.8614 30.3041C40.6752 30.0044 40.4558 29.7283 40.2059 29.4802C40.0879 29.3304 39.9515 29.1958 39.7984 29.0817C39.032 28.4294 38.1208 27.9677 37.1413 27.7356C36.6472 27.6247 36.1421 27.5717 35.6358 27.5762H30.8803C30.7476 27.5762 30.7298 27.6291 30.7298 27.7445V30.8881C30.7298 31.0208 30.7298 31.0565 30.8981 31.0565H41.1177C41.1177 31.0565 41.2063 31.0386 41.2242 30.9857H41.1815ZM41.1815 36.6181C41.031 36.6015 40.8792 36.6015 40.7287 36.6181H30.9077C30.775 36.6181 30.7304 36.6181 30.7304 36.7953V39.8688C30.7304 40.0103 30.7304 40.0461 30.9077 40.0461H35.442C35.6588 40.0626 35.8756 40.0473 36.0879 40.0021C36.746 39.9549 37.3932 39.812 38.0104 39.5767C38.2349 39.499 38.4517 39.3976 38.6564 39.2758H38.7182C39.7812 38.7229 40.6446 37.8545 41.1891 36.7883C41.1891 36.7883 41.251 36.6544 41.1815 36.6193V36.6181ZM28.9507 41.6395V41.5866V39.5232V38.8237V36.7424C28.9507 36.627 28.9507 36.6098 28.8092 36.6098H26.8873C26.7808 36.6098 26.7368 36.6098 26.7368 36.4682V34.7855H28.7913C28.9061 34.7855 28.9507 34.7855 28.9507 34.635V32.9701C28.9507 32.8636 28.9507 32.8374 28.8092 32.8374H26.8873C26.7808 32.8374 26.7368 32.8374 26.7368 32.6959V31.1375C26.7368 31.0399 26.7368 31.0138 26.8784 31.0138H28.7824C28.915 31.0138 28.9507 31.0138 28.9507 30.8454V26.072C28.9507 25.9304 28.9507 25.8947 29.128 25.8947H35.7697C36.2518 25.9138 36.7307 25.9668 37.2045 26.0541C38.1807 26.2346 39.1187 26.5834 39.9763 27.0814C40.5451 27.4161 41.0686 27.8204 41.5347 28.2859C41.8854 28.65 42.2017 29.0441 42.4823 29.4636C42.7609 29.8889 42.9924 30.3436 43.1741 30.8186C43.1964 30.9423 43.315 31.0259 43.4387 31.0048H45.0239C45.2274 31.0048 45.2274 31.0048 45.2363 31.2V32.6525C45.2363 32.7941 45.1834 32.8298 45.0412 32.8298H43.8188C43.6951 32.8298 43.6594 32.8298 43.6683 32.9892C43.7168 33.5286 43.7168 34.07 43.6683 34.6095C43.6683 34.7599 43.6683 34.7778 43.8373 34.7778H45.2356C45.2975 34.8575 45.2356 34.9372 45.2356 35.0176C45.2446 35.1202 45.2446 35.2242 45.2356 35.3268V36.3987C45.2356 36.5492 45.1916 36.5938 45.0584 36.5938H43.3846C43.2679 36.5715 43.1544 36.6461 43.1276 36.7622C42.729 37.7983 42.0914 38.7274 41.2676 39.4722C40.9666 39.7432 40.6503 39.9982 40.32 40.2335C39.9655 40.4376 39.6205 40.6499 39.257 40.8182C38.5882 41.1192 37.8867 41.3411 37.1668 41.482C36.4833 41.6045 35.7902 41.6599 35.0945 41.6504H28.9482V41.6415L28.9507 41.6395Z" fill="white"/>
</g>
</g>
<defs>
<filter id="filter0_d" x="0" y="0" width="72" height="72" filterUnits="userSpaceOnUse" color-interpolation-filters="sRGB">
<feFlood flood-opacity="0" result="BackgroundImageFix"/>
<feColorMatrix in="SourceAlpha" type="matrix" values="0 0 0 0 0 0 0 0 0 0 0 0 0 0 0 0 0 0 127 0"/>
<feOffset dy="2"/>
<feGaussianBlur stdDeviation="7"/>
<feColorMatrix type="matrix" values="0 0 0 0 0.960784 0 0 0 0 0.67451 0 0 0 0 0.215686 0 0 0 0.35 0"/>
<feBlend mode="normal" in2="BackgroundImageFix" result="effect1_dropShadow"/>
<feBlend mode="normal" in="SourceGraphic" in2="effect1_dropShadow" result="shape"/>
</filter>
<linearGradient id="paint0_linear" x1="36" y1="32" x2="36" y2="86" gradientUnits="userSpaceOnUse">
<stop stop-color="#F5AC37"/>
<stop offset="1" stop-color="#F5AC37" stop-opacity="0"/>
</linearGradient>
<clipPath id="clip0">
<rect width="18.5263" height="18.5263" fill="white" transform="translate(26.7368 24.7368)"/>
</clipPath>
</defs>
</svg>

<svg xmlns="http://www.w3.org/2000/svg" width="72" height="86" fill="none" viewBox="0 0 72 86"><path fill="url(#a)" fill-opacity=".3" d="M14 32h44v54H14z"/><g filter="url(#b)"><path fill="#f5ac37" d="M14 34c0-12.15 9.85-22 22-22s22 9.85 22 22-9.85 22-22 22-22-9.85-22-22"/><g clip-path="url(#c)"><path fill="#fff" d="M36.221 34.776h5.385c.114 0 .169 0 .177-.15q.066-.824 0-1.648c0-.106-.053-.15-.169-.15H30.9c-.133 0-.169.044-.169.168v1.576c0 .204 0 .204.213.204zm4.96-3.79a.17.17 0 0 0 0-.124 3.5 3.5 0 0 0-.32-.558 4.5 4.5 0 0 0-.655-.824 2.2 2.2 0 0 0-.408-.398 6.4 6.4 0 0 0-2.657-1.346 6.6 6.6 0 0 0-1.505-.16H30.88c-.132 0-.15.053-.15.168v3.144c0 .133 0 .168.168.168h10.22s.088-.017.106-.07zm0 5.632a2 2 0 0 0-.452 0h-9.821c-.133 0-.178 0-.178.177v3.074c0 .141 0 .177.178.177h4.534q.327.024.646-.044a6.8 6.8 0 0 0 1.922-.425q.339-.118.646-.301h.062a5.75 5.75 0 0 0 2.471-2.488s.062-.134-.008-.169m-12.23 5.021v-4.896c0-.116 0-.133-.142-.133h-1.922c-.106 0-.15 0-.15-.142v-1.683h2.054c.115 0 .16 0 .16-.15V32.97c0-.106 0-.133-.142-.133h-1.922c-.106 0-.15 0-.15-.141v-1.558c0-.098 0-.124.141-.124h1.904c.133 0 .169 0 .169-.169v-4.773c0-.142 0-.177.177-.177h6.642q.723.028 1.435.16c.976.18 1.914.528 2.771 1.026a7.8 7.8 0 0 1 1.559 1.205q.526.547.947 1.178c.279.425.51.88.692 1.355a.23.23 0 0 0 .265.186h1.585c.203 0 .203 0 .212.195v1.453c0 .141-.053.177-.195.177H43.82c-.124 0-.16 0-.15.16a9 9 0 0 1 0 1.62c0 .15 0 .168.168.168h1.399c.062.08 0 .16 0 .24q.014.154 0 .309v1.072c0 .15-.044.195-.178.195h-1.673a.22.22 0 0 0-.257.168 7.1 7.1 0 0 1-1.86 2.71q-.452.407-.948.761c-.355.205-.7.417-1.063.585a9.6 9.6 0 0 1-2.09.664q-1.027.184-2.073.168h-6.146v-.008z"/></g></g><defs><linearGradient id="a" x1="36" x2="36" y1="32" y2="86" gradientUnits="userSpaceOnUse"><stop stop-color="#f5ac37"/><stop offset="1" stop-color="#f5ac37" stop-opacity="0"/></linearGradient><clipPath id="c"><path fill="#fff" d="M26.737 24.737h18.526v18.526H26.737z"/></clipPath><filter id="b" width="72" height="72" x="0" y="0" color-interpolation-filters="sRGB" filterUnits="userSpaceOnUse"><feFlood flood-opacity="0" result="BackgroundImageFix"/><feColorMatrix in="SourceAlpha" values="0 0 0 0 0 0 0 0 0 0 0 0 0 0 0 0 0 0 127 0"/><feOffset dy="2"/><feGaussianBlur stdDeviation="7"/><feColorMatrix values="0 0 0 0 0.960784 0 0 0 0 0.67451 0 0 0 0 0.215686 0 0 0 0.35 0"/><feBlend in2="BackgroundImageFix" result="effect1_dropShadow"/><feBlend in="SourceGraphic" in2="effect1_dropShadow" result="shape"/></filter></defs></svg>
